!! 00000] TT[WS
!!!OTL: Xiu hebao
!!!ARE: Asia, China, Shanxi Huoxian
!! Ethnic Group: Han
!! WII, 56 (1)
!!!SCT: J0477
!!!YEM: Copyright 1995, estate of Helmut Schaffrath.
**kern
*ICvox
*Ivox
*M2/4
*k[b-e-]
*B-:
{8ff
8ff
8ff
8bb-
=1
8gg
8ff
8ee-
8cc
=2
8.ff
16gg
8ff
16ee-
16cc
=3
4b-
4cc}
=4
{8ff
4ee-
8ff
=5
8.cc
16b-
8a
8b-
=6
8cc
8ff
8ff
8a
=7
2f}
==
!!!AGN: Xiaodiao. Qingge, Sichun
!!!ONB: ESAC (Essen Associative Code) Database: CHINA
!!!AMT: simple duple
!!!AIN: vox
!!!EED: Helmut Schaffrath
!!!EEV: 1.0
*-
